images/icons8-dashboard.svg

<svg height="64" viewBox="0 0 64 64" width="64" xmlns="http://www.w3.org/2000/svg"><path d="m31 2c-15.992188 0-29 13.011719-29 29s13.007812 29 29 29 29-13.011719 29-29-13.007812-29-29-29zm0 2c14.886719 0 27 12.113281 27 27s-12.113281 27-27 27-27-12.113281-27-27 12.113281-27 27-27zm.265625 4c-5.980469-.074219-11.632813 2.121094-16.015625 6.234375-4.605469 4.332031-7.25 10.445313-7.25 16.765625 0 4.433594 1.265625 8.738281 3.65625 12.449219.5.773437 1.304688 1.273437 2.207031 1.378906.902344.097656 1.808594-.210937 2.472657-.859375 3.941406-3.847656 9.152343-5.96875 14.664062-5.96875s10.71875 2.121094 14.664062 5.96875c.582032.566406 1.34375.875 2.132813.875.113281 0 .230469-.003906.34375-.015625.898437-.105469 1.703125-.605469 2.199219-1.375 2.574218-3.988281 3.835937-8.625 3.640625-13.40625-.261719-6.511719-3.351563-12.652344-8.464844-16.84375-.429687-.351563-1.058594-.289063-1.40625.140625-.351563.425781-.292969 1.054688.136719 1.40625 4.675781 3.828125 7.496094 9.4375 7.738281 15.375.175781 4.367188-.976563 8.601562-3.328125 12.246094-.171875.265625-.433594.433594-.742188.46875-.304687.035156-.621093-.078125-.851562-.304688-3.101562-3.023437-6.921875-5.054687-11.0625-5.972656v-13.5625c0-.472656-.332031-.878906-.792969-.980469-.457031-.09375-.929687.144531-1.117187.574219l-6.058594 13.621094c-4.917969.632812-9.488281 2.804687-13.09375 6.320312-.234375.230469-.535156.335938-.847656.304688-.3125-.035156-.574219-.203125-.75-.476563-2.183594-3.382812-3.339844-7.3125-3.339844-11.363281 0-5.855469 2.351562-11.292969 6.621094-15.308594 4.265625-4.007812 9.84375-6.015625 15.722656-5.648437.53125.03125 1.054688.085937 1.578125.160156.546875.078125 1.050781-.304687 1.128906-.851563.078125-.550781-.304687-1.054687-.851562-1.132812-.570313-.078125-1.152344-.140625-1.730469-.171875-.402344-.027344-.804688-.042969-1.203125-.046875zm7.394531 1.386719c-.390625.015625-.75.261719-.894531.648437-.195313.519532.066406 1.09375.585937 1.289063.710938.261719 1.414063.570312 2.097657.914062.144531.074219.300781.109375.453125.109375.363281 0 .714844-.199218.894531-.550781.246094-.488281.046875-1.09375-.445313-1.34375-.75-.375-1.523437-.714844-2.300781-1.007813-.128906-.046874-.261719-.0625-.390625-.058593zm-7.660156 4.613281c-.550781 0-1 .445312-1 1v2c0 .554688.449219 1 1 1s1-.445312 1-1v-2c0-.554688-.449219-1-1-1zm-5.976562 1.164062c-.128907-.003906-.261719.023438-.390626.074219-.511718.207031-.761718.789063-.554687 1.300781l.75 1.851563c.15625.390625.53125.628906.925781.628906.125 0 .253906-.023437.375-.074219.515625-.207031.761719-.789062.554688-1.300781l-.75-1.851562c-.15625-.386719-.519532-.621094-.910156-.628907zm11.957031 0c-.390625.007813-.757813.242188-.914063.628907l-.75 1.851562c-.207031.511719.039063 1.09375.554688 1.300781.121094.050782.25.074219.375.074219.394531 0 .769531-.238281.925781-.628906l.75-1.851563c.207031-.511718-.042969-1.09375-.554687-1.300781-.128907-.050781-.257813-.078125-.386719-.074219zm5.117187 3.324219c-.257812.007813-.511718.109375-.703125.308594l-1.390625 1.4375c-.382812.398437-.371094 1.03125.027344 1.414063.195312.1875.441406.28125.691406.28125.265625 0 .523438-.105469.71875-.304688l1.390625-1.441406c.386719-.398438.375-1.03125-.023437-1.414063-.199219-.191406-.453125-.285156-.710938-.28125zm-22.195312.003907c-.257813-.003907-.515625.085937-.714844.277343-.394531.386719-.40625 1.019531-.023438 1.417969l1.390626 1.4375c.195312.203125.457031.304688.722656.304688.25 0 .496094-.09375.691406-.277344.398438-.386719.410156-1.019532.027344-1.417969l-1.390625-1.4375c-.191407-.199219-.445313-.300781-.703125-.304687zm-3.5 5c-.390625-.007813-.761719.214843-.933594.597656-.222656.503906.003906 1.09375.507812 1.316406l1.828126.8125c.132812.058594.269531.089844.40625.089844.382812 0 .746093-.222656.914062-.59375.222656-.507813-.003906-1.097656-.507812-1.324219l-1.828126-.8125c-.125-.054687-.257812-.082031-.386718-.085937zm29.195312 0c-.128906.003906-.261718.027343-.386718.085937l-1.828126.8125c-.503906.226563-.730468.816406-.507812 1.320313.167969.371093.53125.59375.914062.59375.136719 0 .273438-.027344.40625-.085938l1.828126-.8125c.503906-.226562.730468-.816406.507812-1.320312-.171875-.378907-.542969-.601563-.933594-.59375zm-11.597656 4.222656v8.503906c-.988281-.128906-1.988281-.21875-3-.21875-.234375 0-.464844.027344-.699219.03125zm-19 2.285156c-.550781 0-1 .445312-1 1s.449219 1 1 1h2c.550781 0 1-.445312 1-1s-.449219-1-1-1zm30 0c-.550781 0-1 .445312-1 1s.449219 1 1 1h2c.550781 0 1-.445312 1-1s-.449219-1-1-1zm-26.964844 5.246094c-.128906-.003906-.261718.019531-.390625.070312l-1.851562.75c-.515625.207032-.761719.789063-.554688 1.304688.15625.386718.53125.625.929688.625.125 0 .25-.023438.375-.074219l1.851562-.75c.511719-.207031.757813-.789063.554688-1.300781-.15625-.386719-.523438-.621094-.914063-.625zm25.929688 0c-.390625.003906-.757813.238281-.914063.625-.203125.511718.042969 1.09375.554688 1.300781l1.851562.75c.125.050781.25.074219.375.074219.398438 0 .773438-.238282.929688-.625.207031-.515625-.039063-1.097656-.550781-1.304688l-1.855469-.75c-.128907-.050781-.261719-.074218-.390625-.070312zm-21.046875 8.753906c-.550781 0-1 .445312-1 1s.449219 1 1 1h16.25c.550781 0 1-.445312 1-1s-.449219-1-1-1zm2 4c-.550781 0-1 .445312-1 1s.449219 1 1 1h6.25c.550781 0 1-.445312 1-1s-.449219-1-1-1zm10 0c-.550781 0-1 .445312-1 1s.449219 1 1 1h2.25c.550781 0 1-.445312 1-1s-.449219-1-1-1zm0 0" fill="#003e6b"/></svg>

<?xml version="1.0" encoding="UTF-8"?>
<svg xmlns="http://www.w3.org/2000/svg" viewBox="0 0 64 64" width="64px" height="64px">
<g id="surface12898365">
<path style=" stroke:none;fill-rule:nonzero;fill:rgb(0%,24.313726%,41.960785%);fill-opacity:1;" d="M 31 2 C 15.007812 2 2 15.011719 2 31 C 2 46.988281 15.007812 60 31 60 C 46.992188 60 60 46.988281 60 31 C 60 15.011719 46.992188 2 31 2 Z M 31 4 C 45.886719 4 58 16.113281 58 31 C 58 45.886719 45.886719 58 31 58 C 16.113281 58 4 45.886719 4 31 C 4 16.113281 16.113281 4 31 4 Z M 31.265625 8 C 25.285156 7.925781 19.632812 10.121094 15.25 14.234375 C 10.644531 18.566406 8 24.679688 8 31 C 8 35.433594 9.265625 39.738281 11.65625 43.449219 C 12.15625 44.222656 12.960938 44.722656 13.863281 44.828125 C 14.765625 44.925781 15.671875 44.617188 16.335938 43.96875 C 20.277344 40.121094 25.488281 38 31 38 C 36.511719 38 41.71875 40.121094 45.664062 43.96875 C 46.246094 44.535156 47.007812 44.84375 47.796875 44.84375 C 47.910156 44.84375 48.027344 44.839844 48.140625 44.828125 C 49.039062 44.722656 49.84375 44.222656 50.339844 43.453125 C 52.914062 39.464844 54.175781 34.828125 53.980469 30.046875 C 53.71875 23.535156 50.628906 17.394531 45.515625 13.203125 C 45.085938 12.851562 44.457031 12.914062 44.109375 13.34375 C 43.757812 13.769531 43.816406 14.398438 44.246094 14.75 C 48.921875 18.578125 51.742188 24.1875 51.984375 30.125 C 52.160156 34.492188 51.007812 38.726562 48.65625 42.371094 C 48.484375 42.636719 48.222656 42.804688 47.914062 42.839844 C 47.609375 42.875 47.292969 42.761719 47.0625 42.535156 C 43.960938 39.511719 40.140625 37.480469 36 36.5625 L 36 23 C 36 22.527344 35.667969 22.121094 35.207031 22.019531 C 34.75 21.925781 34.277344 22.164062 34.089844 22.59375 L 28.03125 36.214844 C 23.113281 36.847656 18.542969 39.019531 14.9375 42.535156 C 14.703125 42.765625 14.402344 42.871094 14.089844 42.839844 C 13.777344 42.804688 13.515625 42.636719 13.339844 42.363281 C 11.15625 38.980469 10 35.050781 10 31 C 10 25.144531 12.351562 19.707031 16.621094 15.691406 C 20.886719 11.683594 26.464844 9.675781 32.34375 10.042969 C 32.875 10.074219 33.398438 10.128906 33.921875 10.203125 C 34.46875 10.28125 34.972656 9.898438 35.050781 9.351562 C 35.128906 8.800781 34.746094 8.296875 34.199219 8.21875 C 33.628906 8.140625 33.046875 8.078125 32.46875 8.046875 C 32.066406 8.019531 31.664062 8.003906 31.265625 8 Z M 38.660156 9.386719 C 38.269531 9.402344 37.910156 9.648438 37.765625 10.035156 C 37.570312 10.554688 37.832031 11.128906 38.351562 11.324219 C 39.0625 11.585938 39.765625 11.894531 40.449219 12.238281 C 40.59375 12.3125 40.75 12.347656 40.902344 12.347656 C 41.265625 12.347656 41.617188 12.148438 41.796875 11.796875 C 42.042969 11.308594 41.84375 10.703125 41.351562 10.453125 C 40.601562 10.078125 39.828125 9.738281 39.050781 9.445312 C 38.921875 9.398438 38.789062 9.382812 38.660156 9.386719 Z M 31 14 C 30.449219 14 30 14.445312 30 15 L 30 17 C 30 17.554688 30.449219 18 31 18 C 31.550781 18 32 17.554688 32 17 L 32 15 C 32 14.445312 31.550781 14 31 14 Z M 25.023438 15.164062 C 24.894531 15.160156 24.761719 15.1875 24.632812 15.238281 C 24.121094 15.445312 23.871094 16.027344 24.078125 16.539062 L 24.828125 18.390625 C 24.984375 18.78125 25.359375 19.019531 25.753906 19.019531 C 25.878906 19.019531 26.007812 18.996094 26.128906 18.945312 C 26.644531 18.738281 26.890625 18.15625 26.683594 17.644531 L 25.933594 15.792969 C 25.777344 15.40625 25.414062 15.171875 25.023438 15.164062 Z M 36.980469 15.164062 C 36.589844 15.171875 36.222656 15.40625 36.066406 15.792969 L 35.316406 17.644531 C 35.109375 18.15625 35.355469 18.738281 35.871094 18.945312 C 35.992188 18.996094 36.121094 19.019531 36.246094 19.019531 C 36.640625 19.019531 37.015625 18.78125 37.171875 18.390625 L 37.921875 16.539062 C 38.128906 16.027344 37.878906 15.445312 37.367188 15.238281 C 37.238281 15.1875 37.109375 15.160156 36.980469 15.164062 Z M 42.097656 18.488281 C 41.839844 18.496094 41.585938 18.597656 41.394531 18.796875 L 40.003906 20.234375 C 39.621094 20.632812 39.632812 21.265625 40.03125 21.648438 C 40.226562 21.835938 40.472656 21.929688 40.722656 21.929688 C 40.988281 21.929688 41.246094 21.824219 41.441406 21.625 L 42.832031 20.183594 C 43.21875 19.785156 43.207031 19.152344 42.808594 18.769531 C 42.609375 18.578125 42.355469 18.484375 42.097656 18.488281 Z M 19.902344 18.492188 C 19.644531 18.488281 19.386719 18.578125 19.1875 18.769531 C 18.792969 19.15625 18.78125 19.789062 19.164062 20.1875 L 20.554688 21.625 C 20.75 21.828125 21.011719 21.929688 21.277344 21.929688 C 21.527344 21.929688 21.773438 21.835938 21.96875 21.652344 C 22.367188 21.265625 22.378906 20.632812 21.996094 20.234375 L 20.605469 18.796875 C 20.414062 18.597656 20.160156 18.496094 19.902344 18.492188 Z M 16.402344 23.492188 C 16.011719 23.484375 15.640625 23.707031 15.46875 24.089844 C 15.246094 24.59375 15.472656 25.183594 15.976562 25.40625 L 17.804688 26.21875 C 17.9375 26.277344 18.074219 26.308594 18.210938 26.308594 C 18.59375 26.308594 18.957031 26.085938 19.125 25.714844 C 19.347656 25.207031 19.121094 24.617188 18.617188 24.390625 L 16.789062 23.578125 C 16.664062 23.523438 16.53125 23.496094 16.402344 23.492188 Z M 45.597656 23.492188 C 45.46875 23.496094 45.335938 23.519531 45.210938 23.578125 L 43.382812 24.390625 C 42.878906 24.617188 42.652344 25.207031 42.875 25.710938 C 43.042969 26.082031 43.40625 26.304688 43.789062 26.304688 C 43.925781 26.304688 44.0625 26.277344 44.195312 26.21875 L 46.023438 25.40625 C 46.527344 25.179688 46.753906 24.589844 46.53125 24.085938 C 46.359375 23.707031 45.988281 23.484375 45.597656 23.492188 Z M 34 27.714844 L 34 36.21875 C 33.011719 36.089844 32.011719 36 31 36 C 30.765625 36 30.535156 36.027344 30.300781 36.03125 Z M 15 30 C 14.449219 30 14 30.445312 14 31 C 14 31.554688 14.449219 32 15 32 L 17 32 C 17.550781 32 18 31.554688 18 31 C 18 30.445312 17.550781 30 17 30 Z M 45 30 C 44.449219 30 44 30.445312 44 31 C 44 31.554688 44.449219 32 45 32 L 47 32 C 47.550781 32 48 31.554688 48 31 C 48 30.445312 47.550781 30 47 30 Z M 18.035156 35.246094 C 17.90625 35.242188 17.773438 35.265625 17.644531 35.316406 L 15.792969 36.066406 C 15.277344 36.273438 15.03125 36.855469 15.238281 37.371094 C 15.394531 37.757812 15.769531 37.996094 16.167969 37.996094 C 16.292969 37.996094 16.417969 37.972656 16.542969 37.921875 L 18.394531 37.171875 C 18.90625 36.964844 19.152344 36.382812 18.949219 35.871094 C 18.792969 35.484375 18.425781 35.25 18.035156 35.246094 Z M 43.964844 35.246094 C 43.574219 35.25 43.207031 35.484375 43.050781 35.871094 C 42.847656 36.382812 43.09375 36.964844 43.605469 37.171875 L 45.457031 37.921875 C 45.582031 37.972656 45.707031 37.996094 45.832031 37.996094 C 46.230469 37.996094 46.605469 37.757812 46.761719 37.371094 C 46.96875 36.855469 46.722656 36.273438 46.210938 36.066406 L 44.355469 35.316406 C 44.226562 35.265625 44.09375 35.242188 43.964844 35.246094 Z M 22.917969 44 C 22.367188 44 21.917969 44.445312 21.917969 45 C 21.917969 45.554688 22.367188 46 22.917969 46 L 39.167969 46 C 39.71875 46 40.167969 45.554688 40.167969 45 C 40.167969 44.445312 39.71875 44 39.167969 44 Z M 24.917969 48 C 24.367188 48 23.917969 48.445312 23.917969 49 C 23.917969 49.554688 24.367188 50 24.917969 50 L 31.167969 50 C 31.71875 50 32.167969 49.554688 32.167969 49 C 32.167969 48.445312 31.71875 48 31.167969 48 Z M 34.917969 48 C 34.367188 48 33.917969 48.445312 33.917969 49 C 33.917969 49.554688 34.367188 50 34.917969 50 L 37.167969 50 C 37.71875 50 38.167969 49.554688 38.167969 49 C 38.167969 48.445312 37.71875 48 37.167969 48 Z M 34.917969 48 "/>
</g>
</svg>
